storage/app/icons/phosphoricons/thin/joystick-thin.svg

<svg xmlns="http://www.w3.org/2000/svg" fill="currentColor" viewBox="0 0 256 256"><path d="M208 148h-76V91.77a36 36 0 1 0-8 0V148H48a12 12 0 0 0-12 12v48a12 12 0 0 0 12 12h160a12 12 0 0 0 12-12v-48a12 12 0 0 0-12-12M100 56a28 28 0 1 1 28 28 28 28 0 0 1-28-28m112 152a4 4 0 0 1-4 4H48a4 4 0 0 1-4-4v-48a4 4 0 0 1 4-4h160a4 4 0 0 1 4 4Zm-48-88a4 4 0 0 1 4-4h32a4 4 0 0 1 0 8h-32a4 4 0 0 1-4-4"/></svg>

<svg xmlns="http://www.w3.org/2000/svg" viewBox="0 0 256 256" fill="currentColor"><path d="M208,148H132V91.77a36,36,0,1,0-8,0V148H48a12,12,0,0,0-12,12v48a12,12,0,0,0,12,12H208a12,12,0,0,0,12-12V160A12,12,0,0,0,208,148ZM100,56a28,28,0,1,1,28,28A28,28,0,0,1,100,56ZM212,208a4,4,0,0,1-4,4H48a4,4,0,0,1-4-4V160a4,4,0,0,1,4-4H208a4,4,0,0,1,4,4Zm-48-88a4,4,0,0,1,4-4h32a4,4,0,0,1,0,8H168A4,4,0,0,1,164,120Z"/></svg>
